X:1
T:Arfon, 77.77.77
T:French & Welsh melody
T:Arfon, 77.77.77
T:Public Domain
C:French & Welsh melody
Z:Public Domain
%%score ( 1 2 ) ( 3 4 )
L:1/8
M:4/4
K:Bb
V:1 treble 
V:2 treble 
V:3 bass 
V:4 bass 
V:1
 D2 G2 (G^F)(=ED) | [DG]2 [DA]2 [DB]4 | [Dc]2 [DB]2 [DA]2 [B,G]2 | (BA)(G^F) [B,G]4 | %4
 [Dd]2 dc [GB]2 [Gd]2 | (G^F) [GB]2 [FA]4 | [Gd]2 ([Gd][^Fc]) [GB]2 [Gd]2 | [Gc]2 [EB]2 (B2 A2) | %8
 [A,D]2 [DG]2 (G^F)(=ED) | [DG]2 [DA]2 [DB]4 | [Dc]2 [DB]2 [DA]2 [B,G]2 | (BA)(G^F) [DG]4 |] %12
V:2
 D2 G2 x4 | x8 | x8 | E2 D2 x4 | x2 D2 x4 | c2 x6 | x8 | x4 D4 | x4 C2 A,2 | x8 | x8 | E2 D2 x4 |] %12
V:3
 D,2 G,2 (G,^F,)(=E,D,) | [B,,G,]2 [D,^F,]2 G,4 | [^F,A,]2 G,2 [D,F,]2 [E,G,]2 | %3
 (G,A,)(B,A,) [G,,G,]4 | [G,B,]2 [^F,A,]2 [G,D]2 B,2 | [A,C]2 [G,D]2 [D,D]4 | %6
 [B,D]2 (B,[A,C]) [G,D]2 [F,B,]2 | [E,G,]2 [C,G,]2 (G,2 ^F,2) | %8
 [C,^F,]2 [B,,G,]2 [A,,D,]2 (=E,F,) | [B,,G,]2 [D,^F,]2 G,4 | [^F,A,]2 G,2 [D,F,]2 [E,G,]2 | %11
 (G,A,)(B,C) [G,,B,]4 |] %12
V:4
 D,2 G,2 x4 | x4 G,4 | x2 G,2 x4 | C,2 D,2 x4 | x8 | x8 | x2 B, x5 | x4 D,4 | x6 C,2 | x8 | x8 | %11
 C,2 D,2 x4 |] %12

